X:115
T:Mary o' the Wisp (r)
B:NFID.164
115mary_w
S:F&MB
L:1/8
M:C
R:reel
Q:360
K:D
dB|:Add2 ecdB|Addc dedB|Acde fdeg|fbge fdB^G|
Add2 ecdB|Addc dedB|Acde fbed|cA~A2 cA~A2:|
fAge fdge|fdge fdB2|fage fefg|aA~A2 aA~A2|
fAge fdge|fbge fefg|abaf egfd|cA~A2 cA~A2:|

%%%

